X:1
T:Title
%%score { ( 1 3 ) | ( 2 4 ) }
L:1/8
Q:1/4=117
M:6/8
K:D
V:1 treble nm="Grand Piano"
V:3 treble 
V:2 bass 
V:4 bass 
V:1
 [FA]2 [FA] [FA]2 [FA] | [Fd]3 [Fd]3 | F2 E D2 F | [DFA]6 | [EGc]2 [EGc] [EGc]2 [EGc] | %5
w: Charles~H.~Gabriel * * *|||||
 [EGc]3 [CEG]3 | [EGc]2 [CGB] [DFA]2 [A,EG] | [A,DF]6 | [FA]2 [FA] [FA]2 [FA] | [Fd]3 A3 | %10
w: |||||
 B2 B B2 B |[M:7/8] [^Ge]3 d3 z |[M:3/4] c2 c c2 c | d2 d A2 G | F3[K:bass] [G,CE]3 | [F,D]6 | %16
w: ||||||
 [A,CE]2 [CGB] [CGB]2 [CGc] | [CGB]3[K:bass] [G,CE]3 | [F,D]2[K:treble] [FA] [FA]2 [FB] | [FA]6 | %20
w: ||||
 [E^G]2 [Ed] [Gd]2 [Ge] | [^Gd]3 [DEG]3 | [CEA]2 [CEA] [A,EA]2 B | c6 | [Fd]2 [Fd] [Fd]2 [Ge] | %25
w: |||||
 [Fd]3 A3 | B2 B B2 B |[M:7/8] [^Ge]3 d3 z |[M:3/4] c2 c c2 c | d2 d A2 G | F3 [CE]3 | %31
w: ||||||
[M:7/4] D6 z2 z2 z4 |] %32
w: |
V:2
 [D,D]2 [D,D] [D,D]2 [D,D] | [D,A,]3 [D,A,]3 | [D,A,D]2 [D,G,D] [D,F,]2 [D,A,D] | D,6 | %4
 A,,2 A,, A,,2 A,, | A,,3 A,,3 | A,,2 A,, A,,2 A,, | D,6 | [D,D]2 [D,D] [D,D]2 [D,D] | %9
 [D,A,]3 [F,D]3 | [G,DG]2 [G,DG] [G,DG]2 [G,DG] |[M:7/8][K:bass] [E,D]3 [^G,B,E]3 z | %12
[M:3/4] [A,E]2 [A,E] [G,A,E]2 [G,A,E] | [F,A,D]2 [F,A,D] [G,B,D]2 [G,B,D] | [A,D]3 A,,3 | D,6 | %16
 A,,2 A,, A,,2 A,, | A,,3 A,,3 | D,2 [D,D] [D,D]2 [D,D] | [D,D]6 | [E,D]2 [E,B,] [E,B,]2 [E,B,] | %21
 [E,B,]3 E,3 | A,2 A,, C,2 [E,^G,E] | E4 z2 | [D,A,]2 [D,A,] [D,A,]2 [D,A,] | [D,A,]3 [F,D]3 | %26
 [G,DG]2 [G,DG] [G,DG]2 [G,DG] |[M:7/8][K:bass] [E,D]3 [^G,B,E]3 z | %28
[M:3/4] [A,E]2 [A,E] [G,A,E]2 [G,A,E] | [F,A,D]2 [F,A,D] [G,B,D]2 [G,B,D] | [A,D]3 [A,,G,]3 | %31
[M:7/4] [D,F,]6 z2 z2 z4 |] %32
V:3
 x6 | x6 | x6 | x6 | x6 | x6 | x6 | x6 | x6 | x6 | x6 |[M:7/8] x7 |[M:3/4] x6 | x6 | %14
 x3[K:bass] x3 | x6 | x6 | x3[K:bass] x3 | x2[K:treble] x4 | x6 | x6 | x6 | x6 | z2 z .G3 | x6 | %25
 x6 | x6 |[M:7/8] x7 |[M:3/4] x6 | x6 | x6 |[M:7/4] x14 |] %32
V:4
 x6 | x6 | x6 | x6 | x6 | x6 | x6 | x6 | x6 | x6 | x6 |[M:7/8][K:bass] x7 |[M:3/4] x6 | x6 | x6 | %15
 x6 | x6 | x6 | x6 | x6 | x6 | x6 | x6 | A,6 | x6 | x6 | x6 |[M:7/8][K:bass] x7 |[M:3/4] x6 | x6 | %30
 x6 |[M:7/4] x14 |] %32

